dist/uploads/catalog-sidebar-icons/1/i-catalog-10.svg

<svg width="34" height="34" viewBox="0 0 34 34" fill="none" xmlns="http://www.w3.org/2000/svg">
<path d="M23.8 10.2H10.2V13.6H23.8V10.2Z" fill="#FFC800"/>
<path d="M23.8 7.36669C23.8 7.05332 23.5461 6.80005 23.2333 6.80005H10.7666C10.4538 6.80005 10.2 7.05332 10.2 7.36669V9.0667H23.8V7.36669Z" fill="#FFC800"/>
<path d="M13.6 28.3333H14.1666V28.8999C14.1666 29.2133 14.4205 29.4666 14.7333 29.4666C15.046 29.4666 15.2999 29.2133 15.2999 28.8999V27.7666C15.2999 27.4532 15.046 27.2 14.7333 27.2H13.6C13.2872 27.2 13.0333 27.4532 13.0333 27.7666C13.0333 28.08 13.2872 28.3333 13.6 28.3333Z" fill="#FFC800"/>
<path d="M20.3999 27.2H19.2666C18.9538 27.2 18.7 27.4532 18.7 27.7666V28.8999C18.7 29.2133 18.9538 29.4666 19.2666 29.4666C19.5794 29.4666 19.8332 29.2133 19.8332 28.8999V28.3333H20.3999C20.7127 28.3333 20.9665 28.08 20.9665 27.7667C20.9665 27.4533 20.7127 27.2 20.3999 27.2Z" fill="#FFC800"/>
<path d="M28.9 12.4668H28.3334V16.4334H28.9V12.4668Z" fill="#FFC800"/>
<path d="M24.9333 16.4333H27.2V11.8999C27.2 11.5866 27.4539 11.3333 27.7666 11.3333H29.4666H31.1666C31.4794 11.3333 31.7333 11.5866 31.7333 11.8999V16.4333H34V9.6333H24.9333V16.4333Z" fill="#FFC800"/>
<path d="M30.6 12.4668H30.0333V16.4334H30.6V12.4668Z" fill="#FFC800"/>
<path d="M29.4666 17.5667H27.7666H24.9333V20.4H20.2957C20.3592 20.2221 20.4 20.0334 20.4 19.8334C20.4 18.8961 19.6373 18.1334 18.7 18.1334H17.5666V17H23.2333C23.5461 17 23.7999 16.7468 23.7999 16.4334V14.7334H10.2V16.4334C10.2 16.7468 10.4539 17 10.7666 17H16.4333V18.1334H15.3C14.3627 18.1334 13.6 18.8961 13.6 19.8334C13.6 20.0334 13.6408 20.2221 13.7049 20.4H9.06671V17.5667H0V24.3667H2.26664V23.2333V21.5333V19.8333C2.26664 19.52 2.52052 19.2667 2.83329 19.2667H6.23329C6.54606 19.2667 6.79993 19.52 6.79993 19.8333V21.5333V23.2333V24.3667H7.93329V25.5H6.23329H2.83329H0V32.8667C0 33.1801 0.253871 33.4333 0.566645 33.4333H8.5H25.5H27.2V28.3333C27.2 28.02 27.4539 27.7667 27.7666 27.7667C28.0794 27.7667 28.3333 28.02 28.3333 28.3333V33.4333H28.8999V28.3333C28.8999 28.02 29.1538 27.7667 29.4666 27.7667C29.7794 27.7667 30.0332 28.02 30.0332 28.3333V33.4333H30.5999V28.3333C30.5999 28.02 30.8537 27.7667 31.1665 27.7667C31.4793 27.7667 31.7332 28.02 31.7332 28.3333V33.4333H33.4332C33.7459 33.4333 33.9998 33.1801 33.9998 32.8667V25.5H26.0666V24.3667H34V17.5667H31.1666H29.4666ZM15.3 19.2667H18.7C19.0122 19.2667 19.2666 19.5206 19.2666 19.8333C19.2666 20.1461 19.0122 20.4 18.7 20.4H15.3C14.9878 20.4 14.7334 20.1461 14.7334 19.8333C14.7334 19.5206 14.9878 19.2667 15.3 19.2667ZM16.4334 32.3H9.06664V26.0667H13.0333H16.4333V32.3H16.4334ZM24.9334 32.3H17.5666V26.0667H20.9666H24.9333V32.3H24.9334ZM24.9334 24.3667V24.9333H21.5334V23.8C21.5334 23.175 21.0251 22.6667 20.4 22.6667H13.6C12.975 22.6667 12.4666 23.175 12.4666 23.8V24.9334H9.06664V24.3668V21.5334H15.3H18.7H24.9334V24.3667Z" fill="#FFC800"/>
<path d="M33.4334 0.56665H25.5C25.1872 0.56665 24.9333 0.819924 24.9333 1.13329V8.5H34V1.13336C34 0.81999 33.7461 0.56665 33.4334 0.56665Z" fill="#FFC800"/>
<path d="M5.66667 23.8H3.40002V24.3667H5.66667V23.8Z" fill="#FFC800"/>
<path d="M5.66667 20.4001H3.40002V20.9668H5.66667V20.4001Z" fill="#FFC800"/>
<path d="M5.66667 22.1001H3.40002V22.6667H5.66667V22.1001Z" fill="#FFC800"/>
<path d="M2.83336 7.36756C2.52058 7.36756 2.26671 7.11429 2.26671 6.80092C2.26671 6.48754 2.52058 6.23427 2.83336 6.23427H3.4H5.66664H6.23329C6.54606 6.23427 6.79993 6.48754 6.79993 6.80092C6.79993 7.11429 6.54606 7.36756 6.23329 7.36756V8.50092H9.06664V1.13427C9.06664 0.8209 8.81277 0.567627 8.5 0.567627H0.566645C0.253871 0.567561 0 0.8209 0 1.13427V8.50092H2.83336V7.36756Z" fill="#FFC800"/>
<path d="M5.10003 7.3667H3.96667V8.50005H5.10003V7.3667Z" fill="#FFC800"/>
<path d="M9.06664 9.6333H5.66664H3.4H0V16.4333H9.06664V9.6333Z" fill="#FFC800"/>
</svg>

<svg width="34" height="34" fill="none" xmlns="http://www.w3.org/2000/svg"><path d="M23.8 10.2H10.2v3.4h13.6v-3.4zm0-2.833a.567.567 0 0 0-.567-.567H10.767a.566.566 0 0 0-.567.567v1.7h13.6v-1.7zM13.6 28.333h.567v.567a.567.567 0 1 0 1.133 0v-1.133a.566.566 0 0 0-.567-.567H13.6a.566.566 0 1 0 0 1.133zm6.8-1.133h-1.133a.566.566 0 0 0-.567.567V28.9a.566.566 0 1 0 1.133 0v-.567h.567a.566.566 0 1 0 0-1.133zm8.5-14.733h-.567v3.966h.567v-3.966z" fill="#FFC800"/><path d="M24.933 16.433H27.2V11.9c0-.313.254-.567.567-.567h3.4c.312 0 .566.254.566.567v4.533H34v-6.8h-9.067v6.8z" fill="#FFC800"/><path d="M30.6 12.467h-.567v3.966h.567v-3.966zm-1.133 5.1h-4.534V20.4h-4.637c.063-.178.104-.367.104-.567 0-.937-.763-1.7-1.7-1.7h-1.133V17h5.666a.566.566 0 0 0 .567-.567v-1.7H10.2v1.7c0 .314.254.567.567.567h5.666v1.133H15.3c-.937 0-1.7.763-1.7 1.7 0 .2.04.39.105.567H9.067v-2.833H0v6.8h2.267v-4.534c0-.313.254-.566.566-.566h3.4c.313 0 .567.253.567.566v4.534h1.133V25.5H0v7.367c0 .313.254.566.567.566H27.2v-5.1a.567.567 0 1 1 1.133 0v5.1h.567v-5.1a.567.567 0 1 1 1.133 0v5.1h.567v-5.1a.566.566 0 1 1 1.133 0v5.1h1.7a.566.566 0 0 0 .567-.566V25.5h-7.933v-1.133H34v-6.8h-4.533zm-14.167 1.7h3.4a.567.567 0 0 1 0 1.133h-3.4a.567.567 0 0 1 0-1.133zM16.433 32.3H9.067v-6.233h7.366V32.3zm8.5 0h-7.366v-6.233h7.366V32.3zm0-7.933v.566h-3.4V23.8c0-.625-.508-1.133-1.133-1.133h-6.8c-.625 0-1.133.508-1.133 1.133v1.133h-3.4v-3.4h15.866v2.834zm8.5-23.8H25.5a.567.567 0 0 0-.567.566V8.5H34V1.133a.567.567 0 0 0-.567-.566z" fill="#FFC800"/><path d="M5.667 23.8H3.4v.567h2.267V23.8zm0-3.4H3.4v.567h2.267V20.4zm0 1.7H3.4v.567h2.267V22.1zM2.833 7.368a.566.566 0 1 1 0-1.134h3.4a.566.566 0 1 1 0 1.134V8.5h2.834V1.134A.566.566 0 0 0 8.5.568H.567A.566.566 0 0 0 0 1.134v7.367h2.833V7.368z" fill="#FFC800"/><path d="M5.1 7.367H3.967V8.5H5.1V7.367zm3.967 2.266H0v6.8h9.067v-6.8z" fill="#FFC800"/></svg>
